Front/img/common-section_why/icn-3.svg

<svg width="40" height="40" viewBox="0 0 40 40" fill="none" xmlns="http://www.w3.org/2000/svg">
<path d="M35.5566 17.7773L22.7383 17.7773" stroke="#FF8139" stroke-width="1.5" stroke-linecap="round" stroke-linejoin="round"/>
<path d="M32.4362 22.7148C28.6489 22.7148 26.5255 22.7148 22.7383 22.7148" stroke="#FF8139" stroke-width="1.5" stroke-linecap="round" stroke-linejoin="round"/>
<path d="M38.6089 32.5967C31.7941 32.5967 26.2695 27.0722 26.2695 20.2573C26.2695 13.4425 31.7941 7.91797 38.6089 7.91797" stroke="#FF8139" stroke-width="1.5" stroke-linecap="round" stroke-linejoin="round"/>
<path d="M17.329 20.5196C17.329 23.9372 16.4328 26.9963 15.0234 29.1781C13.6091 31.3675 11.7443 32.5901 9.79733 32.5901C7.85037 32.5901 5.98558 31.3675 4.57127 29.1781C3.16187 26.9963 2.26562 23.9372 2.26562 20.5196C2.26562 17.1021 3.16187 14.043 4.57127 11.8612C5.98558 9.67177 7.85037 8.44922 9.79733 8.44922C11.7443 8.44922 13.6091 9.67177 15.0234 11.8612C16.4328 14.043 17.329 17.1021 17.329 20.5196Z" stroke="#00181B" stroke-width="1.5"/>
</svg>

<svg xmlns="http://www.w3.org/2000/svg" fill="none" viewBox="0 0 40 40"><path stroke="#FF8139" stroke-linecap="round" stroke-linejoin="round" stroke-width="1.5" d="M35.557 17.777H22.738M32.436 22.715h-9.698M38.609 32.597c-6.815 0-12.34-5.525-12.34-12.34 0-6.815 5.525-12.339 12.34-12.339"/><path stroke="#00181B" stroke-width="1.5" d="M17.329 20.52c0 3.417-.896 6.476-2.306 8.658-1.414 2.19-3.279 3.412-5.226 3.412s-3.811-1.223-5.226-3.412c-1.41-2.182-2.305-5.24-2.305-8.658 0-3.418.896-6.477 2.305-8.659 1.415-2.19 3.28-3.412 5.226-3.412 1.947 0 3.812 1.223 5.226 3.412 1.41 2.182 2.306 5.241 2.306 8.659z"/></svg>
